X:1
T:[ID 1-32]
T:[ID 1-32]
T:Bezeichnung standardisiert: Menuett Men\"uet In anderer Quelle: Menuet - Hs. Wandembrille 1778 (Anm. S. Wascher);
T:Urheber unbekannt Datum in der hier transkribierten schriftlichen Quelle: vermutlich vor 1767
C:Urheber unbekannt
C:Datum in der hier transkribierten schriftlichen Quelle: vermutlich vor 1767
L:1/8
M:4/4
K:G
V:1 treble 
V:1
"^O)" !arpeggio![G,DBg]3 dBG | c2 B2 A2 |"^O)" !arpeggio![G,DBg]3 dBG | c2 B2 A2 | eccA A2 | %5
 dBBG G2 | ABcBAG | F2 EF D2 |"^O)" !arpeggio![G,DBg]3 dBG | c2 B2 A2 | %10
"^O)" !arpeggio![G,DBg]3 dBG | c2 B2 A2 | eccA A2 | dBBG G2 | AcBAGF | G6 :: B4 GB | A2 B^c d2 | %18
 ef"^[sic]""^2)""^g"afed | ^c2 Bc A2 | bgge e2 | affd d2 | egfed"^[sic]"c | d4 D2 | _Bc d2 d2 | %25
 d_B_edcB | A_B c2 c2 | cAdc_BA | GA _B2 B2 |"^[sic]""^3)""^\202" BAcBAG | ^F2 GGFG | A2 GFED | %32
"^O)" [G,DBg]3 dBG | c2 B2 A2 |"^O)" [G,DBg]3 dBG | c2 B2 A2 | eccA A2 | dBBG G2 | AcBAGF | G6 :| %40

